svg/food/soup_pot_2_line.svg

<svg xmlns="http://www.w3.org/2000/svg" width="24" height="24" viewBox="0 0 24 24"><g fill="none" fill-rule="evenodd"><path d="M24,0 L24,24 L0,24 L0,0 L24,0 Z M12.5935,23.2578 L12.5819,23.2595 L12.5109,23.295 L12.4919,23.2987 L12.4767,23.295 L12.4057,23.2595 C12.3958,23.2564 12.387,23.259 12.3821,23.2649 L12.378,23.2758 L12.3609,23.7031 L12.3659,23.7235 L12.3769,23.7357 L12.4805,23.8097 L12.4953,23.8136 L12.5071,23.8097 L12.6107,23.7357 L12.6233,23.7197 L12.6267,23.7031 L12.6096,23.2758 C12.6076,23.2657 12.601,23.2593 12.5935,23.2578 Z M12.8584,23.1453 L12.8445,23.1473 L12.6598,23.2397 L12.6499,23.2499 L12.6472,23.2611 L12.6651,23.6906 L12.6699,23.7034 L12.6784,23.7105 L12.8793,23.8032 C12.8914,23.8069 12.9022,23.803 12.9078,23.7952 L12.9118,23.7812 L12.8777,23.1665 C12.8753,23.1546 12.8674,23.147 12.8584,23.1453 Z M12.143,23.1473 C12.1332,23.1424 12.1222,23.1453 12.1156,23.1526 L12.1099,23.1665 L12.0758,23.7812 C12.0751,23.7927 12.0828,23.8019 12.0926,23.8046 L12.1083,23.8032 L12.3092,23.7105 L12.3186,23.7024 L12.3225,23.6906 L12.3404,23.2611 L12.3372,23.2485 L12.3278,23.2397 L12.143,23.1473 Z"/><path fill="#09244B" d="M14,3 C14.5523,3 15,3.44772 15,4 C15,4.51283143 14.613973,4.93550653 14.1166239,4.9932722 L14,5 L13,5 L13,6 L14.0018,6 C14.2393,6.00104 14.4774,6.0249 14.7126,6.05493 L15.0530734,6.10526406 C15.42115,6.16694312 15.868525,6.265075 16.3636,6.42142 C17.301,6.71742 18.4209,7.22622 19.4935,8.0987 L19.5858,8 L20.2929,7.29289 C20.6834,6.90237 21.3166,6.90237 21.7071,7.29289 C22.0675615,7.65337923 22.0952893,8.22060645 21.7902834,8.61290152 L21.7071,8.70711 L21,9.41421 L21,16 C21,18.6887316 18.8776708,20.8818169 16.2168878,20.9953804 L16,21 L8,21 C5.31124895,21 3.11818208,18.8776708 3.00461952,16.2168878 L3,16 L3,9.41421 L2.29289,8.70711 C1.90237,8.31658 1.90237,7.68342 2.29289,7.29289 C2.65337923,6.93241 3.22060645,6.90468077 3.61290152,7.20970231 L3.70711,7.29289 L4.41421,8 C4.44617,8.03195 4.47693,8.06488 4.50647,8.0987 C5.57907,7.22622 6.69901,6.71742 7.63637,6.42142 C8.1314525,6.265075 8.57882938,6.16694312 8.9469275,6.10526406 L9.28743,6.05493 L9.28743,6.05493 C9.44447667,6.03487667 9.60236778,6.01761 9.76060556,6.00801889 L9.99816,6 L11,6 L11,5 L10,5 C9.44772,5 9,4.55228 9,4 C9,3.48716857 9.38604429,3.06449347 9.88337975,3.0067278 L10,3 L14,3 Z M19,11.2102 C14.50403,12.00915 10.1865474,12.0490975 5.70845189,11.3300425 L5,11.2102 L5,16 C5,17.597725 6.24892392,18.903664 7.82372764,18.9949075 L8,19 L16,19 C17.597725,19 18.903664,17.7511226 18.9949075,16.1762773 L19,16 L19,11.2102 Z M13.9965,8 L9.95690111,8.00146579 L9.95690111,8.00146579 L9.77530513,8.01377454 L9.77530513,8.01377454 L9.47552228,8.04793784 L9.47552228,8.04793784 L9.21912008,8.08822464 C9.17299627,8.09633027 9.12525333,8.10517622 9.07600519,8.11482963 L8.76336496,8.18297648 C8.5989248,8.2224316 8.422988,8.270362 8.23863,8.32858 C7.59778,8.53096 6.85991,8.85437 6.13327,9.37247 C10.091,9.99713 13.909,9.99713 17.8667,9.37247 C17.1401,8.85437 16.4022,8.53096 15.7614,8.32858 C15.196,8.15004 14.5928,8.01322 13.9965,8 Z"/></g></svg>

<svg xmlns="http://www.w3.org/2000/svg" width="24" height="24"><g fill="none" fill-rule="evenodd"><path d="M24 0v24H0V0zM12.594 23.258l-.012.002-.071.035-.02.004-.014-.004-.071-.036c-.01-.003-.019 0-.024.006l-.004.01-.017.428.005.02.01.013.104.074.015.004.012-.004.104-.074.012-.016.004-.017-.017-.427c-.002-.01-.009-.017-.016-.018m.264-.113-.014.002-.184.093-.01.01-.003.011.018.43.005.012.008.008.201.092c.012.004.023 0 .029-.008l.004-.014-.034-.614c-.003-.012-.01-.02-.02-.022m-.715.002a.023.023 0 0 0-.027.006l-.006.014-.034.614c0 .012.007.02.017.024l.015-.002.201-.093.01-.008.003-.011.018-.43-.003-.012-.01-.01z"/><path fill="#09244B" d="M14 3a1 1 0 0 1 .117 1.993L14 5h-1v1h1.002c.237.001.475.025.71.055l.341.05c.368.062.816.16 1.31.316a9.48 9.48 0 0 1 3.13 1.678L19.587 8l.707-.707a1 1 0 0 1 1.497 1.32l-.083.094-.707.707V16a5 5 0 0 1-4.783 4.995L16 21H8a5 5 0 0 1-4.995-4.783L3 16V9.414l-.707-.707a1 1 0 0 1 1.32-1.497l.094.083.707.707c.032.032.063.065.092.099a9.481 9.481 0 0 1 3.13-1.678 9.68 9.68 0 0 1 1.31-.316l.341-.05a7.16 7.16 0 0 1 .474-.047L9.998 6H11V5h-1a1 1 0 0 1-.117-1.993L10 3zm5 8.21c-4.496.8-8.813.84-13.292.12L5 11.21V16a3 3 0 0 0 2.824 2.995L8 19h8a3 3 0 0 0 2.995-2.824L19 16zM13.996 8l-4.04.001-.18.013-.3.034-.257.04a7.428 7.428 0 0 0-.143.027l-.313.068a7.531 7.531 0 0 0-2.63 1.19c3.958.624 7.776.624 11.734 0a7.531 7.531 0 0 0-2.106-1.044c-.565-.179-1.168-.316-1.764-.329"/></g></svg>
